X:1
T:Title
%%score ( 1 2 ) ( 3 4 )
L:1/8
Q:1/4=90
M:4/4
K:D
V:1 treble nm="Midi_20"
V:2 treble 
V:3 bass nm="Midi_20"
V:4 bass 
V:1
"^Star of peace (87. 84)""^Lowell Mason\n(1792-1872)""^Star of peace""^Jane Cross Simpson\n(1811-86)" D3 D D2 D2 | %1
 E2 E2 F2 E2 || F3 F F2 ^G2 | A2 B2 c4 || d3 d ed cB | A3 F F2 E2 || D4 E3 E | F8 || %8
"^repeat" d3 d ed cB | A3 F F2 E2 || D4 F3 E | D8 |] %12
V:2
 A,3 A, B,2 D2 | D2 C2 D2 C2 || D3 D D2 D2 | E2 E2 E4 || D3 F GF ED | E3 D D2 C2 || A,4 C3 C | %7
 D8 || D3 F GF ED | E3 D D2 C2 || B,4 C3 C | D8 |] %12
V:3
 F,3 F, B,2 A,2 | G,2 A,2 A,2 A,2 || A,3 A, B,2 B,2 | A,2 ^G,2 A,4 || A,3 A, B,2 F,2 | %5
 A,3 A, A,2 G,2 || %6
"^1. Star of peace to wanderers weary,\nBright the beams that smile on me;\nCheer the pilot's vision dreary,\nFar, far at sea.\n\n2. Star of hope, gleam on the billow;\nBless the soul that sighs for Thee;\nBless the sailor's lonely pillow,\nFar, far at sea." F,4 A,3 A, | %7
 A,8 || A,3 A, B,2 F,2 | %9
"^3. Star of faith, when winds are mocking\nAll his toil, he flies to Thee;\nSave him on the billows rocking,\nFar, far at sea.\n\n4. Star Divine, O safely guide him;\nBring the wanderer home to Thee;\nSore temptations long have tried him,\nFar, far at sea." A,3 A, A,2 G,2 || %10
 F,4 A,3 G, | F,8 |] %12
V:4
 D,3 D, G,2 F,2 | E,2 A,,2 D,2 A,2 || F,3 D, B,,2 B,,2 | C,2 E,2 A,4 || F,3 D, G,2 B,,2 | %5
 C,3 D, A,,2 A,,2 || B,,4 A,,3 A,, | D,8 || F,3 D, G,2 B,,2 | C,3 D, A,2 A,,2 || B,,4 A,,3 A,, | %11
 D,8 |] %12

